packages/foundations/assets/icons/functional/images/file/image_16_filled.svg

<svg width="16" height="16" viewBox="0 0 16 16" fill="none" xmlns="http://www.w3.org/2000/svg">
<g clip-path="url(#clip0_2208_3413)">
<path fill-rule="evenodd" clip-rule="evenodd" d="M12 2.40002C12.8435 2.40002 13.6023 3.14369 13.6 4.00002V12C13.6 12.8435 12.8581 13.6022 12 13.6H4.00002C3.15653 13.6 2.40546 12.85 2.40002 12V4.00002C2.40002 3.15653 3.16084 2.40516 4.00002 2.40002H12ZM12 4.00002H4.00002V9.50482L5.24225 8.88448C5.4004 8.80541 5.57932 8.78139 5.75105 8.81441L7.78322 9.48402L9.83434 7.43434C10.1227 7.14595 10.5765 7.12377 10.8903 7.36779L12 8.46802V4.00002ZM6.00002 4.80002C6.66283 4.80002 7.20002 5.33732 7.20002 6.00002C7.20002 6.66273 6.66283 7.20002 6.00002 7.20002C5.33722 7.20002 4.80002 6.66273 4.80002 6.00002C4.80002 5.33732 5.33722 4.80002 6.00002 4.80002Z" fill="#1A1C1F"/>
</g>
<defs>
<clipPath id="clip0_2208_3413">
<rect width="16" height="16" fill="white"/>
</clipPath>
</defs>
</svg>

<svg xmlns="http://www.w3.org/2000/svg" width="16" height="16" fill="none"><g clip-path="url(#a)"><path fill="#1A1C1F" fill-rule="evenodd" d="M12 2.4c.844 0 1.602.744 1.6 1.6v8c0 .844-.742 1.602-1.6 1.6H4c-.843 0-1.595-.75-1.6-1.6V4c0-.843.76-1.595 1.6-1.6zM12 4H4v5.505l1.242-.62a.8.8 0 0 1 .51-.07l2.031.669 2.051-2.05a.8.8 0 0 1 1.056-.066l1.11 1.1zm-6 .8a1.2 1.2 0 1 1 0 2.4 1.2 1.2 0 0 1 0-2.4" clip-rule="evenodd"/></g><defs><clipPath id="a"><path fill="#fff" d="M0 0h16v16H0z"/></clipPath></defs></svg>
